svgs/sharp-solid/circle-trash.svg

<svg xmlns="http://www.w3.org/2000/svg" viewBox="0 0 512 512"><!--! Font Awesome Pro 6.6.0 by @fontawesome - https://fontawesome.com License - https://fontawesome.com/license (Commercial License) Copyright 2024 Fonticons, Inc. --><path d="M256 512A256 256 0 1 0 256 0a256 256 0 1 0 0 512zM160 128l41.4 0 11.3-11.3 4.7-4.7 6.6 0 64 0 6.6 0 4.7 4.7L310.6 128l41.4 0 16 0 0 32-16 0-192 0-16 0 0-32 16 0zm0 64l192 0L336 384l-160 0L160 192z"/></svg>

<svg xmlns="http://www.w3.org/2000/svg" viewBox="0 0 512 512"><!--! Font Awesome Pro 6.4.0 by @fontawesome - https://fontawesome.com License - https://fontawesome.com/license (Commercial License) Copyright 2023 Fonticons, Inc. --><path d="M256 512A256 256 0 1 0 256 0a256 256 0 1 0 0 512zM160 128h41.4l11.3-11.3 4.7-4.7H224h64 6.6l4.7 4.7L310.6 128H352h16v32H352 160 144V128h16zm0 64H352L336 384H176L160 192z"/></svg>
